tools/download-figma-icons/icons/outlined-large/connector-type1.svg

<svg width="64" height="64" viewBox="0 0 64 64" fill="none" xmlns="http://www.w3.org/2000/svg">
<path fill-rule="evenodd" clip-rule="evenodd" d="M5 30C5 44.89 17.11 57 32 57C46.89 57 59 44.89 59 30C59 15.11 46.89 3 32 3C17.11 3 5 15.11 5 30ZM2 30C2 13.46 15.46 0 32 0C48.54 0 62 13.46 62 30C62 44.13 52.18 56 39 59.17V62.5C39 63.33 38.33 64 37.5 64H26.5C25.67 64 25 63.33 25 62.5V59.17C11.82 56 2 44.13 2 30ZM19 19.5C19 21.43 20.57 23 22.5 23C24.43 23 26 21.43 26 19.5C26 17.57 24.43 16 22.5 16C20.57 16 19 17.57 19 19.5ZM22.5 13C26.084 13 29 15.916 29 19.5C29 23.084 26.084 26 22.5 26C18.916 26 16 23.084 16 19.5C16 15.916 18.916 13 22.5 13ZM45 19.5C45 17.57 43.43 16 41.5 16C39.57 16 38 17.57 38 19.5C38 21.43 39.57 23 41.5 23C43.43 23 45 21.43 45 19.5ZM48 19.5C48 23.084 45.084 26 41.5 26C37.916 26 35 23.084 35 19.5C35 15.916 37.916 13 41.5 13C45.084 13 48 15.916 48 19.5ZM32 49C30.07 49 28.5 47.43 28.5 45.5C28.5 43.57 30.07 42 32 42C33.93 42 35.5 43.57 35.5 45.5C35.5 47.43 33.93 49 32 49ZM32 39C28.416 39 25.5 41.916 25.5 45.5C25.5 49.084 28.416 52 32 52C35.584 52 38.5 49.084 38.5 45.5C38.5 41.916 35.584 39 32 39ZM13 35.5C13 37.43 14.57 39 16.5 39C18.43 39 20 37.43 20 35.5C20 33.57 18.43 32 16.5 32C14.57 32 13 33.57 13 35.5ZM11 35.5C11 32.468 13.468 30 16.5 30C19.532 30 22 32.468 22 35.5C22 38.532 19.532 41 16.5 41C13.468 41 11 38.532 11 35.5ZM46.5 39C44.57 39 43 37.43 43 35.5C43 33.57 44.57 32 46.5 32C48.43 32 50 33.57 50 35.5C50 37.43 48.43 39 46.5 39ZM46.5 30C43.468 30 41 32.468 41 35.5C41 38.532 43.468 41 46.5 41C49.532 41 52 38.532 52 35.5C52 32.468 49.532 30 46.5 30Z" fill="black"/>
</svg>

<svg xmlns="http://www.w3.org/2000/svg" width="64" height="64" fill="none" viewBox="0 0 64 64"><path fill="currentColor" fill-rule="evenodd" d="M5 30c0 14.89 12.11 27 27 27s27-12.11 27-27S46.89 3 32 3 5 15.11 5 30m-3 0C2 13.46 15.46 0 32 0s30 13.46 30 30c0 14.13-9.82 26-23 29.17v3.33c0 .83-.67 1.5-1.5 1.5h-11c-.83 0-1.5-.67-1.5-1.5v-3.33C11.82 56 2 44.13 2 30m17-10.5c0 1.93 1.57 3.5 3.5 3.5s3.5-1.57 3.5-3.5-1.57-3.5-3.5-3.5-3.5 1.57-3.5 3.5m3.5-6.5c3.584 0 6.5 2.916 6.5 6.5S26.084 26 22.5 26a6.51 6.51 0 0 1-6.5-6.5c0-3.584 2.916-6.5 6.5-6.5M45 19.5c0-1.93-1.57-3.5-3.5-3.5S38 17.57 38 19.5s1.57 3.5 3.5 3.5 3.5-1.57 3.5-3.5m3 0c0 3.584-2.916 6.5-6.5 6.5a6.51 6.51 0 0 1-6.5-6.5c0-3.584 2.916-6.5 6.5-6.5s6.5 2.916 6.5 6.5M32 49c-1.93 0-3.5-1.57-3.5-3.5S30.07 42 32 42s3.5 1.57 3.5 3.5S33.93 49 32 49m0-10a6.51 6.51 0 0 0-6.5 6.5c0 3.584 2.916 6.5 6.5 6.5s6.5-2.916 6.5-6.5S35.584 39 32 39m-19-3.5c0 1.93 1.57 3.5 3.5 3.5s3.5-1.57 3.5-3.5-1.57-3.5-3.5-3.5-3.5 1.57-3.5 3.5m-2 0c0-3.032 2.468-5.5 5.5-5.5s5.5 2.468 5.5 5.5-2.468 5.5-5.5 5.5a5.507 5.507 0 0 1-5.5-5.5M46.5 39c-1.93 0-3.5-1.57-3.5-3.5s1.57-3.5 3.5-3.5 3.5 1.57 3.5 3.5-1.57 3.5-3.5 3.5m0-9a5.507 5.507 0 0 0-5.5 5.5c0 3.032 2.468 5.5 5.5 5.5s5.5-2.468 5.5-5.5-2.468-5.5-5.5-5.5" clip-rule="evenodd"/></svg>
